X:1
T:[ID 2-97a]
T:[ID 2-97a]
T:Bezeichnung standardisiert: Polonaise Polonoise
T:Urheber unbekannt Datum in der hier transkribierten schriftlichen Quelle: 1767
C:Urheber unbekannt
C:Datum in der hier transkribierten schriftlichen Quelle: 1767
L:1/8
M:3/4
K:F
V:1 treble 
V:1
 fe/f/ gf/e/ fc | c/B/A/G/ Fd{d} c2 | fe/f/ gb ag/f/ | e/f/g/e/ f2 F2 :: c2 c/B/A/G/ F/E/D/C/ | %5
 B,/D/F/B/ d/B/A/B/ d/B/A/B/ | d2 d/c/B/A/ G/F/E/D/ | C/E/G/c/ e/c/B/c/ f/c/B/c/ | %8
 fe/f/ gb b/a/g/f/ | e/f/g/e/ f2 F2 :| %10

